X: 575
T: Dilkeşîde Faslının...
C: Ahmet Avni Konuk
O: Turkey
F: http://compmusic.upf.edu/node/140
N: dilkeside--kupe--yuruksemai_ii--dilkeside--ahmet_avni_konuk
N: makam= dilkeside
N: form= kupe
N: usul= yuruksemai_ii = 6/8
M: 6/8
L: 1/16
K: C _1/4B ^f  
Q: 1/4=120
%%MIDI tuningsystem comma53
d2c2 d2e6  | =f2e2 f2g2 e2ed  | c2c2 d2d2 c2c_2/4B  | \
w:  Dil *  ke şî  |  de   |  fas *  lı nın   | 
_2/4B2c2 BAA4z2  | 
w:  te  | 
d2c2 d2e4z2  | e2^3/4f2 g2a2 g2f2  | \
w:  si *  ri  var  |  dır   | 
ac'_2/4b2 a2g2 ^3/4f2fe  | e4 edcd e4  | 
w:  dil *  *  *  *  *  le  |  re    | 
d2c2 d2e2 e2a2  | a2g2 =f2e2 e2ed  | \
w:  İn *  ti şâr   |  et  | 
cdc2 d2d2 c2c_2/4B  | 
w:  se  *  *  se zâ  | 
_2/4B2c2 BAA4z2  | _B4 B2B2 A2AG  | G2A_B AG=FE D4  | \
w:  dır   |  şöh re ti   |  her   | 
=F2E2 D2^C2 D2ED  | 
w:  bir  *  *  *  *  ye  | 
D8-D2z2  | |


